Papirus/64x64/apps/citrix-receiver.svg

<svg xmlns="http://www.w3.org/2000/svg" width="64" height="64" version="1">
 <rect style="opacity:.2" width="56" height="56" x="-59" y="-60" rx="28" ry="28" transform="matrix(0,-1,-1,0,0,0)"/>
 <rect style="fill:#2071c5" width="56" height="56" x="-58" y="-60" rx="28" ry="28" transform="matrix(0,-1,-1,0,0,0)"/>
 <path style="opacity:.2" d="m32 11a2 2 0 0 0 -0.1914 0.01172c-10.933224 0.104539-19.8086 9.03097-19.8086 19.98828 0 11.022006 8.977994 20 20 20 10.954678 0 19.879524-8.87118 19.988282-19.800782a2 2 0 0 0 0.011718 -0.199218 2 2 0 0 0 -2 -2 2 2 0 0 0 -2 2c0 8.860246-7.139754 16-16 16s-16-7.139754-16-16 7.139754-16 16-16a2 2 0 0 0 2 -2 2 2 0 0 0 -2 -2zm0 8a2 2 0 0 0 -0.1914 0.0078c-6.515374 0.104126-11.8086 5.453052-11.8086 11.9922 0 6.603728 5.396272 12 12 12 6.536452 0 11.87988-5.289112 11.988282-11.800782a2 2 0 0 0 0.011718 -0.199218 2 2 0 0 0 -2 -2 2 2 0 0 0 -2 2c0 4.441968-3.558032 8-8 8s-8-3.558032-8-8 3.558032-8 8-8a2 2 0 0 0 2 -2 2 2 0 0 0 -2 -2zm0 8a4 4 0 0 0 -4 4 4 4 0 0 0 4 4 4 4 0 0 0 4 -4 4 4 0 0 0 -4 -4z"/>
 <path style="fill:#ffffff" d="m32 10a2 2 0 0 0 -0.1914 0.01172c-10.933224 0.104539-19.8086 9.03097-19.8086 19.98828 0 11.022006 8.977994 20 20 20 10.954678 0 19.879524-8.87118 19.988282-19.800782a2 2 0 0 0 0.011718 -0.199218 2 2 0 0 0 -2 -2 2 2 0 0 0 -2 2c0 8.860246-7.139754 16-16 16s-16-7.139754-16-16 7.139754-16 16-16a2 2 0 0 0 2 -2 2 2 0 0 0 -2 -2zm0 8a2 2 0 0 0 -0.1914 0.0078c-6.515374 0.104126-11.8086 5.453052-11.8086 11.9922 0 6.603728 5.396272 12 12 12 6.536452 0 11.87988-5.289112 11.988282-11.800782a2 2 0 0 0 0.011718 -0.199218 2 2 0 0 0 -2 -2 2 2 0 0 0 -2 2c0 4.441968-3.558032 8-8 8s-8-3.558032-8-8 3.558032-8 8-8a2 2 0 0 0 2 -2 2 2 0 0 0 -2 -2zm0 8a4 4 0 0 0 -4 4 4 4 0 0 0 4 4 4 4 0 0 0 4 -4 4 4 0 0 0 -4 -4z"/>
 <path style="opacity:.1;fill:#ffffff" d="m32 2c-15.512 0-28 12.488-28 28 0 0.11345 0.0112805 0.224113 0.0175781 0.335938 0.3515432-15.201757 12.6931499-27.335938 27.9824219-27.335938s27.630879 12.134181 27.982422 27.335938c0.006298-0.111825 0.017578-0.222488 0.017578-0.335938 0-15.512-12.488-28-28-28z"/>
</svg>

<?xml version="1.0" encoding="UTF-8" standalone="no"?>
<svg
   id="_图层_1"
   version="1.1"
   viewBox="0 0 64 64" width="64" height="64"
   sodipodi:docname="citrix-receiver.svg"
   xml:space="preserve"
   inkscape:version="1.4 (e7c3feb100, 2024-10-09)"
   xmlns:inkscape="http://www.inkscape.org/namespaces/inkscape"
   xmlns:sodipodi="http://sodipodi.sourceforge.net/DTD/sodipodi-0.dtd"
   xmlns="http://www.w3.org/2000/svg"
   xmlns:svg="http://www.w3.org/2000/svg"><sodipodi:namedview
     id="namedview26"
     pagecolor="#505050"
     bordercolor="#eeeeee"
     borderopacity="1"
     inkscape:showpageshadow="0"
     inkscape:pageopacity="0"
     inkscape:pagecheckerboard="0"
     inkscape:deskcolor="#505050"
     inkscape:zoom="10.6875"
     inkscape:cx="32"
     inkscape:cy="32"
     inkscape:window-width="1920"
     inkscape:window-height="939"
     inkscape:window-x="0"
     inkscape:window-y="34"
     inkscape:window-maximized="1"
     inkscape:current-layer="g26" /><!-- Generator: Adobe Illustrator 29.0.1, SVG Export Plug-In . SVG Version: 2.1.0 Build 192)  --><defs
     id="defs6"><style
       id="style1">
      .st0 {
        fill-opacity: .5;
      }

      .st0, .st1, .st2, .st3, .st4, .st5, .st6, .st7 {
        fill: #fff;
      }

      .st8 {
        fill: #133c9a;
      }

      .st2, .st9 {
        display: none;
      }

      .st3 {
        fill-opacity: .2;
      }

      .st4 {
        fill-opacity: .9;
      }

      .st10 {
        fill: #3370ff;
      }

      .st11 {
        fill: url(#_未命名的渐变_3);
      }

      .st12 {
        fill: url(#_未命名的渐变);
      }

      .st5 {
        fill-opacity: .3;
      }

      .st6 {
        fill-opacity: 0;
      }

      .st7 {
        fill-opacity: .7;
      }

      .st13 {
        fill: #00d6b9;
      }

      .st14 {
        fill: url(#_未命名的渐变_2);
      }
    </style><radialGradient
       id="_未命名的渐变"
       data-name="未命名的渐变"
       cx="123.9"
       cy="-40.2"
       fx="123.9"
       fy="-40.2"
       r="59.4"
       gradientTransform="translate(-26.8 25.5) scale(.6 -.7)"
       gradientUnits="userSpaceOnUse"><stop
         offset="0"
         stop-color="#db202e"
         id="stop1" /><stop
         offset="1"
         stop-color="#e01b24"
         id="stop2" /></radialGradient><radialGradient
       id="_未命名的渐变_2"
       data-name="未命名的渐变 2"
       cx="67.6"
       cy="26.8"
       fx="67.6"
       fy="26.8"
       r="105.2"
       gradientTransform="translate(-26.6 25.3) scale(.6 -.7)"
       gradientUnits="userSpaceOnUse"><stop
         offset="0"
         stop-color="#ffb648"
         id="stop3" /><stop
         offset="1"
         stop-color="#ff7800"
         stop-opacity="0"
         id="stop4" /></radialGradient><radialGradient
       id="_未命名的渐变_3"
       data-name="未命名的渐变 3"
       cx="61.7"
       cy="18.6"
       fx="61.7"
       fy="18.6"
       r="68"
       gradientTransform="translate(-26.8 25.8) scale(.6 -.7)"
       gradientUnits="userSpaceOnUse"><stop
         offset="0"
         stop-color="#c64600"
         id="stop5" /><stop
         offset="1"
         stop-color="#a51d2d"
         id="stop6" /></radialGradient></defs><path
     class="st1"
     d="M47.5,64.1H13.8c-7.6,0-13.8-6.3-13.8-13.8V13.7C0,6.2,6.2,0,13.7,0h36.6c7.5,0,13.7,6.2,13.7,13.7v36.6c0,7.5-6.2,13.7-13.7,13.7h-2.9.1Z"
     id="path6"
     style="fill:#2071c5;fill-opacity:1" /><g
     id="g26"
     transform="matrix(1.1403509,0,0,1.1395301,-4.3976608,-2.053914)"><path
       style="opacity:0.2"
       d="m 32,11 a 2,2 0 0 0 -0.1914,0.01172 C 20.875376,11.116259 12,20.04269 12,31 12,42.022006 20.977994,51 32,51 42.954678,51 51.879524,42.12882 51.988282,31.199218 A 2,2 0 0 0 52,31 2,2 0 0 0 50,29 2,2 0 0 0 48,31 C 48,39.860246 40.860246,47 32,47 23.139754,47 16,39.860246 16,31 16,22.139754 23.139754,15 32,15 a 2,2 0 0 0 2,-2 2,2 0 0 0 -2,-2 z m 0,8 a 2,2 0 0 0 -0.1914,0.0078 C 25.293226,19.111926 20,24.460852 20,31 c 0,6.603728 5.396272,12 12,12 6.536452,0 11.87988,-5.289112 11.988282,-11.800782 A 2,2 0 0 0 44,31 2,2 0 0 0 42,29 2,2 0 0 0 40,31 c 0,4.441968 -3.558032,8 -8,8 -4.441968,0 -8,-3.558032 -8,-8 0,-4.441968 3.558032,-8 8,-8 a 2,2 0 0 0 2,-2 2,2 0 0 0 -2,-2 z m 0,8 a 4,4 0 0 0 -4,4 4,4 0 0 0 4,4 4,4 0 0 0 4,-4 4,4 0 0 0 -4,-4 z"
       id="path2" /><path
       style="fill:#ffffff"
       d="m 32,10 a 2,2 0 0 0 -0.1914,0.01172 C 20.875376,10.116259 12,19.04269 12,30 12,41.022006 20.977994,50 32,50 42.954678,50 51.879524,41.12882 51.988282,30.199218 A 2,2 0 0 0 52,30 2,2 0 0 0 50,28 2,2 0 0 0 48,30 C 48,38.860246 40.860246,46 32,46 23.139754,46 16,38.860246 16,30 16,21.139754 23.139754,14 32,14 a 2,2 0 0 0 2,-2 2,2 0 0 0 -2,-2 z m 0,8 a 2,2 0 0 0 -0.1914,0.0078 C 25.293226,18.111926 20,23.460852 20,30 c 0,6.603728 5.396272,12 12,12 6.536452,0 11.87988,-5.289112 11.988282,-11.800782 A 2,2 0 0 0 44,30 2,2 0 0 0 42,28 2,2 0 0 0 40,30 c 0,4.441968 -3.558032,8 -8,8 -4.441968,0 -8,-3.558032 -8,-8 0,-4.441968 3.558032,-8 8,-8 a 2,2 0 0 0 2,-2 2,2 0 0 0 -2,-2 z m 0,8 a 4,4 0 0 0 -4,4 4,4 0 0 0 4,4 4,4 0 0 0 4,-4 4,4 0 0 0 -4,-4 z"
       id="path3" /></g></svg>
